X:1550
T:Barney, Let the Girl alone
A:Wyresdale, Lancashire
B:E and J Winder, 1835-41
L:1/8
M:2/4
O:England
Z:Richard Robinson 
%%TUNEURL: http://www.leeds.ac.uk/music/Info/RRTuneBk/gettune/00001247.html
%%ID:00001247
K:D
abag | fdd2 | Beed | cAA2 | abag | fdd2 | B2cc | d4 ::
fdge | fdge | Beed | cAA2 | fdge | fdge | B2cc | d4 :|
%%newpage
%page 123
